svg/mono/mastercard.svg

<?xml version="1.0" encoding="UTF-8" standalone="no"?>
<svg width="750px" height="471px" viewBox="0 0 750 471" version="1.1" xmlns="http://www.w3.org/2000/svg" xmlns:xlink="http://www.w3.org/1999/xlink" xmlns:sketch="http://www.bohemiancoding.com/sketch/ns">
    <!-- Generator: Sketch 3.3.1 (12005) - http://www.bohemiancoding.com/sketch -->
    <title>mastercard</title>
    <desc>Created with Sketch.</desc>
    <defs></defs>
    <g id="Page-1" stroke="none" stroke-width="1" fill="none" fill-rule="evenodd" sketch:type="MSPage">
        <g id="mastercard" sketch:type="MSLayerGroup" fill="#393939">
            <path d="M0,40.0047706 C0,17.9107459 17.9143492,0 39.9919369,0 L710.008063,0 C732.095,0 750,17.9064659 750,40.0047706 L750,430.995229 C750,453.089254 732.085651,471 710.008063,471 L39.9919369,471 C17.905,471 0,453.093534 0,430.995229 L0,40.0047706 Z M703.974684,235.480392 C703.974684,347.842604 612.368878,439.285954 499.777214,439.285954 C452.816046,439.285954 409.523861,423.343845 374.986064,396.683982 C340.471113,423.343845 297.179385,439.285954 250.215932,439.285954 C137.62701,439.285954 46.025316,347.842604 46.025316,235.480392 C46.025316,123.114077 137.62701,31.7140456 250.215932,31.7140456 C297.179385,31.7140456 340.471113,47.5964198 374.986064,74.2950419 C409.523861,47.5964198 452.816046,31.7140456 499.777214,31.7140456 C612.368878,31.7140456 703.974684,123.114077 703.974684,235.480392 L703.974684,235.480392 Z M499.777214,49.9356842 C458.358359,49.9356842 420.119595,63.478794 389.227937,86.3333617 C417.245633,112.357108 437.966484,146.151043 447.867715,184.23591 L428.942519,184.23591 C419.246897,150.565094 400.294287,120.838652 374.986064,97.9612842 C349.705256,120.838652 330.738939,150.565094 321.07987,184.23591 L302.127259,184.23591 C312.051336,146.151043 332.772186,112.357108 360.789883,86.3333617 C329.879948,63.478794 291.655348,49.9356842 250.215932,49.9356842 C147.548345,49.9356842 64.3195195,132.995531 64.3195195,235.480392 C64.3195195,337.938806 147.548345,421.024644 250.215932,421.024644 C291.655348,421.024644 329.879948,407.48199 360.789883,384.628791 C334.426199,360.124426 314.536924,328.729947 304.023434,293.390182 L323.158808,293.390182 C333.325047,324.33368 351.372976,351.645618 374.986064,372.99722 C398.626567,351.645618 416.697342,324.33368 426.86358,293.390182 L445.994385,293.390182 C435.462619,328.729947 415.577913,360.124426 389.227937,384.628791 C420.119595,407.48199 458.358359,421.024644 499.777214,421.024644 C602.444802,421.024644 685.675454,337.938806 685.675454,235.480392 C685.675454,132.995531 602.444802,49.9356842 499.777214,49.9356842 L499.777214,49.9356842 Z M174.973887,191.254159 L145.206683,191.254159 L126.604066,246.602614 L125.829147,191.254159 L98.2432297,191.254159 L83.2689314,280.681091 L101.220453,280.681091 L112.75011,212.359978 L114.360259,280.681091 L127.439296,280.681091 L151.949755,211.951861 L140.967933,280.681091 L160.140316,280.681091 L174.973887,191.254159 L174.973887,191.254159 Z M210.628827,248.271563 C208.612028,248.066364 207.733848,247.986565 206.348955,247.986565 C195.468567,247.986565 189.987479,251.703852 189.987479,259.026707 C189.987479,263.563421 192.677306,266.44897 196.83427,266.44897 C204.658846,266.44897 210.280662,259.026707 210.628827,248.271563 L210.628827,248.271563 Z M224.562742,280.681091 L208.67097,280.681091 L209.040153,273.137533 C204.189143,279.09559 197.730269,281.945571 188.952579,281.945571 C178.540066,281.945571 171.450657,273.832017 171.450657,262.097391 C171.450657,244.365037 183.815544,234.057226 205.086971,234.057226 C207.26643,234.057226 210.05769,234.260144 212.90972,234.625398 C213.502332,232.20451 213.645344,231.189461 213.645344,229.887133 C213.645344,225.088677 210.321784,223.278825 201.356761,223.278825 C191.986459,223.156162 184.244125,225.496339 181.065405,226.552884 C181.270558,225.332636 183.735585,210.204481 183.735585,210.204481 C193.271745,207.399187 199.584408,206.341274 206.675645,206.341274 C223.138555,206.341274 231.859132,213.701065 231.839485,227.651836 C231.859132,231.392379 231.246873,236.007525 230.290104,242.090524 C228.619643,252.599886 225.053463,275.171736 224.562742,280.681091 L224.562742,280.681091 Z M475.008145,189.057621 C449.599402,189.057621 431.830188,211.383689 431.830188,243.351812 C431.830188,267.099221 444.692193,281.945571 465.3308,281.945571 C470.626382,281.945571 475.209185,281.251087 482.2593,279.300788 L485.622155,258.944628 C479.284819,262.058175 474.07148,263.540165 469.337897,263.540165 C458.193872,263.540165 451.468162,255.324924 451.468162,241.760838 C451.468162,222.058578 461.479052,208.250534 475.798599,208.250534 C481.117026,208.250534 486.088203,209.634484 492.932709,213.091853 L496.071678,193.694198 C493.261683,192.59707 483.378729,189.057621 475.008145,189.057621 L475.008145,189.057621 Z M530.262223,248.271563 C528.265528,248.066364 527.369985,247.986565 525.962704,247.986565 C515.101962,247.986565 509.600771,251.703852 509.600771,259.026707 C509.600771,263.563421 512.291968,266.44897 516.490968,266.44897 C524.294984,266.44897 529.937817,259.026707 530.262223,248.271563 L530.262223,248.271563 Z M544.197966,280.681091 L528.329495,280.681091 L528.695023,273.137533 C523.824367,279.09559 517.345389,281.945571 508.581862,281.945571 C498.191738,281.945571 491.059379,273.832017 491.059379,262.097391 C491.059379,244.365037 503.469044,234.057226 524.719909,234.057226 C526.899368,234.057226 529.691086,234.260144 532.546771,234.625398 C533.131615,232.20451 533.277826,231.189461 533.277826,229.887133 C533.277826,225.088677 529.956093,223.278825 521.009804,223.278825 C511.620311,223.156162 503.898539,225.496339 500.718448,226.552884 C500.901212,225.332636 503.368524,210.204481 503.368524,210.204481 C512.922504,207.399187 519.236994,206.341274 526.287109,206.341274 C542.772408,206.341274 551.494812,213.701065 551.471967,227.651836 C551.513088,231.392379 550.882553,236.007525 549.923043,242.090524 C548.273599,252.599886 544.691428,275.171736 544.197966,280.681091 L544.197966,280.681091 Z M318.795322,263.477694 C317.511406,263.928675 315.82084,264.168985 313.641381,264.168985 C309.076854,264.168985 307.061883,262.544268 307.061883,258.780925 C307.103005,256.464916 310.26025,239.261975 312.462555,225.453931 L322.299818,225.453931 L324.908772,207.965535 L315.108061,207.965535 L317.328642,196.989689 L298.276882,196.989689 C298.276882,196.989689 291.066392,239.790931 289.986714,246.561574 C288.764024,254.309875 287.216471,262.747642 287.336182,265.959229 C287.336182,276.311728 292.676084,281.945571 302.474511,281.945571 C306.920241,281.945571 311.009582,281.210047 316.273181,279.585786 L318.795322,263.477694 L318.795322,263.477694 Z M377.4351,279.01579 C370.873878,281.010777 364.554818,281.945571 357.8748,281.945571 C336.518845,281.901339 325.397665,270.780941 325.397665,249.491355 C325.397665,224.641344 339.557294,206.341274 358.770343,206.341274 C374.478895,206.341274 384.526337,216.56883 384.526337,232.673275 C384.526337,238.000687 383.813558,243.185829 382.159545,250.569332 L344.222341,250.569332 C342.938425,261.078694 349.705256,265.47268 360.789883,265.47268 C367.611543,265.47268 373.747839,264.08873 380.592345,260.918183 L377.4351,279.01579 L377.4351,279.01579 Z M366.716,235.888053 C366.839366,234.383263 368.730972,222.871164 357.851954,222.871164 C351.779626,222.871164 347.420708,227.528717 345.670744,235.888053 L366.716,235.888053 L366.716,235.888053 Z M239.296249,230.945502 C239.296249,240.158009 243.736954,246.481319 253.883545,251.260167 C261.647353,254.919087 262.848569,255.975176 262.848569,259.293921 C262.848569,263.803731 259.425402,265.837934 251.825625,265.837934 C246.121565,265.837934 240.783033,264.98294 234.648565,262.993425 C234.648565,262.993425 232.125053,279.01579 232.001688,279.790529 C236.383451,280.725779 240.253018,281.616341 251.968637,281.945571 C272.199224,281.945571 281.532059,274.236486 281.532059,257.644124 C281.532059,247.621311 277.639189,241.805526 268.020785,237.389651 C259.996539,233.690148 259.059417,232.876193 259.059417,229.481296 C259.059417,225.535554 262.257785,223.542392 268.470841,223.542392 C272.218871,223.542392 277.373268,223.950509 282.22245,224.641344 L284.955226,207.764441 C279.982679,206.99107 272.465145,206.341274 268.083382,206.341274 C246.630105,206.341274 239.214463,217.50408 239.296249,230.945502 L239.296249,230.945502 Z M652.179412,280.681091 L634.030962,280.681091 L634.944782,273.912272 C629.667476,279.505531 624.271373,281.945571 617.26238,281.945571 C603.322068,281.945571 594.11534,269.966986 594.11534,251.789579 C594.11534,227.567933 608.393765,207.194445 625.303989,207.194445 C632.724201,207.194445 638.385311,210.204481 643.626064,217.097787 L647.861616,191.254159 L666.773104,191.254159 L652.179412,280.681091 L652.179412,280.681091 Z M623.883,263.887635 C632.806445,263.887635 639.102659,253.779094 639.102659,239.382814 C639.102659,230.131092 635.538764,225.127893 628.931851,225.127893 C620.232292,225.127893 614.059444,235.23461 614.059444,249.530571 C614.059444,259.065923 617.3629,263.887635 623.883,263.887635 L623.883,263.887635 Z M564.736052,207.965535 C562.332708,230.45713 558.07431,253.250138 554.752578,275.782772 L553.875311,280.681091 L573.028962,280.681091 C579.896313,236.212267 581.564033,227.528717 592.301408,228.626302 C594.01025,219.495419 597.190341,211.547848 599.593686,207.52185 C591.552077,205.851078 587.065224,210.407855 581.221351,219.009326 C581.687398,215.266959 582.523543,211.666863 582.340779,207.965535 L564.736052,207.965535 L564.736052,207.965535 Z M397.159887,207.965535 C394.751974,230.45713 390.4753,253.250138 387.153567,275.782772 L386.2763,280.681091 L405.448227,280.681091 C412.315579,236.212267 413.965022,227.528717 424.702398,228.626302 C426.434085,219.495419 429.632452,211.547848 431.999244,207.52185 C423.989619,205.851078 419.470783,210.407855 413.617771,219.009326 C414.088388,215.266959 414.919963,211.666863 414.760045,207.965535 L397.159887,207.965535 L397.159887,207.965535 Z M666.690861,284.443066 C670.359845,284.443066 673.329757,281.473614 673.329757,277.857558 C673.329757,274.215054 670.359845,271.267034 666.690861,271.267034 C663.062998,271.267034 660.12507,274.215054 660.12507,277.857558 C660.12507,281.473614 663.062998,284.443066 666.690861,284.443066 L666.690861,284.443066 Z M661.673993,277.857558 C661.673993,275.09148 663.917419,272.834751 666.690861,272.834751 C669.500855,272.834751 671.69859,275.09148 671.69859,277.857558 C671.69859,280.583052 669.500855,282.857565 666.690861,282.857565 C663.917419,282.857565 661.673993,280.583052 661.673993,277.857558 L661.673993,277.857558 Z M665.831871,280.702523 L664.488556,280.702523 L664.488556,274.968817 L666.933023,274.968817 C667.421916,274.968817 667.951931,274.968817 668.399702,275.253815 C668.852043,275.538813 669.135327,276.129785 669.135327,276.678806 C669.135327,277.350033 668.76523,277.937813 668.111849,278.183596 L669.176449,280.702523 L667.668647,280.702523 L666.809657,278.468594 L665.831871,278.468594 L665.831871,280.702523 L665.831871,280.702523 Z M665.831871,277.469504 L666.567495,277.469504 C666.850779,277.469504 667.138632,277.469504 667.380794,277.350033 C667.627525,277.207762 667.709769,276.922764 667.709769,276.678806 C667.709769,276.432567 667.586403,276.210041 667.380794,276.06777 C667.175185,275.942827 666.773104,275.987514 666.526373,275.987514 L665.831871,275.987514 L665.831871,277.469504 L665.831871,277.469504 Z M676.75201,349.125323 C676.75201,345.503795 679.726491,342.534343 683.354354,342.534343 C686.982216,342.534343 689.956697,345.503795 689.956697,349.125323 C689.956697,352.744571 686.982216,355.710375 683.354354,355.710375 C679.726491,355.710375 676.75201,352.744571 676.75201,349.125323 L676.75201,349.125323 Z M683.354354,354.124874 C686.127795,354.124874 688.407774,351.844889 688.407774,349.125323 C688.407774,346.358789 686.127795,344.119844 683.354354,344.119844 C680.585482,344.119844 678.346624,346.358789 678.346624,349.125323 C678.346624,351.844889 680.585482,354.124874 683.354354,354.124874 L683.354354,354.124874 Z M682.458811,349.689847 L683.436597,349.689847 L684.33214,352.010872 L685.839942,352.010872 L684.784481,349.450905 C685.392171,349.205123 685.79882,348.635126 685.79882,347.962075 C685.79882,347.415334 685.474414,346.806123 685.067765,346.503341 C684.619993,346.195087 684.048856,346.195087 683.559963,346.195087 L681.115497,346.195087 L681.115497,352.010872 L682.458811,352.010872 L682.458811,349.689847 L682.458811,349.689847 Z M682.458811,347.249352 L683.189866,347.249352 C683.436597,347.249352 683.802125,347.210136 684.007734,347.335079 C684.213344,347.495134 684.373262,347.700333 684.373262,347.946115 C684.373262,348.207857 684.254466,348.469599 684.007734,348.635126 C683.802125,348.736814 683.477719,348.736814 683.230988,348.736814 L682.458811,348.736814 L682.458811,347.249352 L682.458811,347.249352 Z" id="Rectangle-1" sketch:type="MSShapeGroup"></path>
        </g>
    </g>
</svg>

<?xml version="1.0" encoding="UTF-8" standalone="no"?>
<svg
   xmlns:sketch="http://www.bohemiancoding.com/sketch/ns"
   xmlns:dc="http://purl.org/dc/elements/1.1/"
   xmlns:cc="http://creativecommons.org/ns#"
   xmlns:rdf="http://www.w3.org/1999/02/22-rdf-syntax-ns#"
   xmlns:svg="http://www.w3.org/2000/svg"
   xmlns="http://www.w3.org/2000/svg"
   xmlns:sodipodi="http://sodipodi.sourceforge.net/DTD/sodipodi-0.dtd"
   xmlns:inkscape="http://www.inkscape.org/namespaces/inkscape"
   width="750px"
   height="471px"
   viewBox="0 0 750 471"
   version="1.1"
   id="svg2"
   inkscape:version="0.91 r13725"
   sodipodi:docname="mastercard.svg">
  <metadata
     id="metadata15">
    <rdf:RDF>
      <cc:Work
         rdf:about="">
        <dc:format>image/svg+xml</dc:format>
        <dc:type
           rdf:resource="http://purl.org/dc/dcmitype/StillImage" />
      </cc:Work>
    </rdf:RDF>
  </metadata>
  <sodipodi:namedview
     pagecolor="#ffffff"
     bordercolor="#666666"
     borderopacity="1"
     objecttolerance="10"
     gridtolerance="10"
     guidetolerance="10"
     inkscape:pageopacity="0"
     inkscape:pageshadow="2"
     inkscape:window-width="1440"
     inkscape:window-height="851"
     id="namedview13"
     showgrid="false"
     inkscape:zoom="2.172232"
     inkscape:cx="630.10374"
     inkscape:cy="140.4061"
     inkscape:window-x="0"
     inkscape:window-y="300"
     inkscape:window-maximized="1"
     inkscape:current-layer="svg2" />
  <!-- Generator: Sketch 3.3.1 (12005) - http://www.bohemiancoding.com/sketch -->
  <title
     id="title4">mastercard</title>
  <desc
     id="desc6">Created with Sketch.</desc>
  <defs
     id="defs8" />
  <g
     id="Page-1"
     stroke="none"
     stroke-width="1"
     fill="none"
     fill-rule="evenodd"
     sketch:type="MSPage">
    <g
       id="mastercard"
       sketch:type="MSLayerGroup"
       fill="#393939">
      <path
         d="M 0,40.004771 C 0,17.910746 17.914349,0 39.991937,0 L 710.00806,0 C 732.095,0 750,17.906466 750,40.004771 l 0,390.990459 C 750,453.08925 732.08565,471 710.00806,471 L 39.991937,471 C 17.905,471 0,453.09353 0,430.99523 Z M 703.97468,235.48039 c 0,112.36221 -91.6058,203.80556 -204.19747,203.80556 -46.96116,0 -90.25335,-15.94211 -124.79115,-42.60197 -34.51495,26.65986 -77.80667,42.60197 -124.77013,42.60197 -112.58892,0 -204.190614,-91.44335 -204.190614,-203.80556 0,-112.36631 91.601694,-203.766344 204.190614,-203.766344 46.96346,0 90.25518,15.882374 124.77013,42.580996 34.5378,-26.698622 77.82999,-42.580996 124.79115,-42.580996 112.59167,0 204.19747,91.400034 204.19747,203.766344 z M 499.77721,49.935684 c -41.41885,0 -79.65762,13.54311 -110.54927,36.397678 28.01769,26.023748 48.73854,59.817678 58.63977,97.902548 l -18.92519,0 c -9.69562,-33.67082 -28.64823,-63.39726 -53.95646,-86.274626 -25.2808,22.877366 -44.24712,52.603806 -53.90619,86.274626 l -18.95261,0 c 9.92408,-38.08487 30.64493,-71.8788 58.66262,-97.902548 -30.90993,-22.854568 -69.13453,-36.397678 -110.57395,-36.397678 -102.66759,0 -185.896411,83.059846 -185.896411,185.544706 0,102.45842 83.228821,185.54425 185.896411,185.54425 41.43942,0 79.66402,-13.54265 110.57395,-36.39585 -26.36368,-24.50436 -46.25296,-55.89884 -56.76645,-91.23861 l 19.13538,0 c 10.16624,30.9435 28.21417,58.25544 51.82725,79.60704 23.64051,-21.3516 41.71128,-48.66354 51.87752,-79.60704 l 19.13081,0 c -10.53177,35.33977 -30.41648,66.73425 -56.76645,91.23861 30.89165,22.8532 69.13042,36.39585 110.54927,36.39585 102.66759,0 185.89824,-83.08583 185.89824,-185.54425 0,-102.48486 -83.23065,-185.544706 -185.89824,-185.544706 z m -324.80332,141.318476 -29.76721,0 -18.60261,55.34845 -0.77492,-55.34845 -27.58592,0 -14.974299,89.42693 17.951519,0 11.52966,-68.32111 1.61015,68.32111 13.07904,0 24.51045,-68.72923 -10.98182,68.72923 19.17239,0 14.83357,-89.42693 z m 35.65494,57.0174 c -2.0168,-0.2052 -2.89498,-0.28499 -4.27988,-0.28499 -10.88038,0 -16.36147,3.71728 -16.36147,11.04014 0,4.53671 2.68983,7.42226 6.84679,7.42226 7.82458,0 13.44639,-7.42226 13.79456,-18.17741 z m 13.93391,32.40953 -15.89177,0 0.36918,-7.54356 c -4.85101,5.95806 -11.30988,8.80804 -20.08757,8.80804 -10.41251,0 -17.50192,-8.11355 -17.50192,-19.84818 0,-17.73235 12.36488,-28.04016 33.63631,-28.04016 2.17946,0 4.97072,0.20291 7.82275,0.56817 0.59261,-2.42089 0.73562,-3.43594 0.73562,-4.73827 0,-4.79845 -3.32356,-6.60831 -12.28858,-6.60831 -9.3703,-0.12266 -17.11264,2.21752 -20.29136,3.27406 0.20516,-1.22024 2.67018,-16.3484 2.67018,-16.3484 9.53616,-2.80529 15.84883,-3.86321 22.94006,-3.86321 16.46291,0 25.18349,7.35979 25.16384,21.31057 0.0196,3.74054 -0.59261,8.35568 -1.54938,14.43868 -1.67046,10.50937 -5.23664,33.08122 -5.72736,38.59057 z m 250.44541,-91.62347 c -25.40875,0 -43.17796,22.32607 -43.17796,54.29419 0,23.74741 12.862,38.59376 33.50061,38.59376 5.29558,0 9.87838,-0.69448 16.9285,-2.64478 l 3.36286,-20.35616 c -6.33734,3.11354 -11.55068,4.59553 -16.28426,4.59553 -11.14403,0 -17.86974,-8.21524 -17.86974,-21.77932 0,-19.70226 10.01089,-33.51031 24.33044,-33.51031 5.31843,0 10.2896,1.38395 17.13411,4.84132 l 3.13897,-19.39765 c -2.81,-1.09713 -12.69295,-4.63658 -21.06353,-4.63658 z m 55.25407,59.21394 c -1.99669,-0.2052 -2.89223,-0.28499 -4.29952,-0.28499 -10.86074,0 -16.36193,3.71728 -16.36193,11.04014 0,4.53671 2.6912,7.42226 6.8902,7.42226 7.80401,0 13.44685,-7.42226 13.77125,-18.17741 z m 13.93575,32.40953 -15.86848,0 0.36553,-7.54356 c -4.87065,5.95806 -11.34963,8.80804 -20.11316,8.80804 -10.39012,0 -17.52248,-8.11355 -17.52248,-19.84818 0,-17.73235 12.40966,-28.04016 33.66053,-28.04016 2.17946,0 4.97118,0.20291 7.82686,0.56817 0.58484,-2.42089 0.73106,-3.43594 0.73106,-4.73827 0,-4.79845 -3.32174,-6.60831 -12.26803,-6.60831 -9.38949,-0.12266 -17.11126,2.21752 -20.29135,3.27406 0.18276,-1.22024 2.65007,-16.3484 2.65007,-16.3484 9.55398,-2.80529 15.86847,-3.86321 22.91859,-3.86321 16.4853,0 25.2077,7.35979 25.18486,21.31057 0.0411,3.74054 -0.58942,8.35568 -1.54893,14.43868 -1.64944,10.50937 -5.23161,33.08122 -5.72507,38.59057 z m -225.40265,-17.2034 c -1.28391,0.45098 -2.97448,0.6913 -5.15394,0.6913 -4.56453,0 -6.5795,-1.62472 -6.5795,-5.38806 0.0411,-2.31601 3.19837,-19.51896 5.40067,-33.327 l 9.83727,0 2.60895,-17.4884 -9.80071,0 2.22058,-10.97584 -19.05176,0 c 0,0 -7.21049,42.80124 -8.29017,49.57188 -1.22269,7.7483 -2.77024,16.18607 -2.65053,19.39766 0,10.3525 5.3399,15.98634 15.13833,15.98634 4.44573,0 8.53507,-0.73552 13.79867,-2.35978 l 2.52214,-16.1081 z m 58.63978,15.5381 c -6.56122,1.99499 -12.88028,2.92978 -19.5603,2.92978 -21.35596,-0.0442 -32.47713,-11.16463 -32.47713,-32.45422 0,-24.85001 14.15962,-43.15008 33.37267,-43.15008 15.70856,0 25.756,10.22756 25.756,26.332 0,5.32742 -0.71278,10.51256 -2.3668,17.89606 l -37.9372,0 c -1.28392,10.50936 5.48292,14.90335 16.56754,14.90335 6.82166,0 12.95796,-1.38395 19.80247,-4.5545 l -3.15725,18.09761 z M 366.716,235.88805 c 0.12337,-1.50479 2.01497,-13.01689 -8.86405,-13.01689 -6.07232,0 -10.43124,4.65756 -12.18121,13.01689 l 21.04526,0 z M 239.29625,230.9455 c 0,9.21251 4.4407,15.53582 14.58729,20.31467 7.76381,3.65892 8.96503,4.71501 8.96503,8.03375 0,4.50981 -3.42317,6.54401 -11.02295,6.54401 -5.70406,0 -11.04259,-0.85499 -17.17706,-2.84451 0,0 -2.52351,16.02237 -2.64687,16.79711 4.38176,0.93525 8.25133,1.82581 19.96695,2.15504 20.23058,0 29.56342,-7.70908 29.56342,-24.30145 0,-10.02281 -3.89287,-15.83859 -13.51128,-20.25447 -8.02424,-3.6995 -8.96136,-4.51346 -8.96136,-7.90835 0,-3.94575 3.19836,-5.93891 9.41142,-5.93891 3.74803,0 8.90243,0.40812 13.75161,1.09895 l 2.73278,-16.8769 c -4.97255,-0.77337 -12.49009,-1.42317 -16.87185,-1.42317 -21.45328,0 -28.86892,11.16281 -28.78713,24.60423 z m 412.88316,49.73559 -18.14845,0 0.91382,-6.76882 c -5.2773,5.59326 -10.67341,8.0333 -17.6824,8.0333 -13.94031,0 -23.14704,-11.97858 -23.14704,-30.15599 0,-24.22165 14.27843,-44.59514 31.18865,-44.59514 7.42021,0 13.08132,3.01004 18.32207,9.90335 l 4.23556,-25.84363 18.91148,0 -14.59369,89.42693 z M 623.883,263.88763 c 8.92345,0 15.21966,-10.10854 15.21966,-24.50482 0,-9.25172 -3.5639,-14.25492 -10.17081,-14.25492 -8.69956,0 -14.87241,10.10672 -14.87241,24.40268 0,9.53535 3.30346,14.35706 9.82356,14.35706 z m -59.14695,-55.9221 c -2.40334,22.4916 -6.66174,45.28461 -9.98347,67.81724 l -0.87727,4.89832 19.15365,0 c 6.86735,-44.46882 8.53507,-53.15237 19.27245,-52.05479 1.70884,-9.13088 4.88893,-17.07845 7.29228,-21.10445 -8.04161,-1.67077 -12.52847,2.88601 -18.37234,11.48748 0.46605,-3.74237 1.30219,-7.34247 1.11943,-11.0438 l -17.60473,0 z m -167.57616,0 c -2.40792,22.4916 -6.68459,45.28461 -10.00632,67.81724 l -0.87727,4.89832 19.17193,0 c 6.86735,-44.46882 8.51679,-53.15237 19.25417,-52.05479 1.73168,-9.13088 4.93005,-17.07845 7.29684,-21.10445 -8.00962,-1.67077 -12.52846,2.88601 -18.38147,11.48748 0.47062,-3.74237 1.30219,-7.34247 1.14227,-11.0438 l -17.60015,0 z"
         id="Rectangle-1"
         sketch:type="MSShapeGroup"
         inkscape:connector-curvature="0"
         sodipodi:nodetypes="ssssssssscscssscsccccccccccssscccccccssccccccccccccccccccssscccccssscscccscccccssccssscccccssscccccssscscccscccccscccccccccscccccsssccsccccscccccsscccscssccscccccsssccccccssscccccccccccccccccccccc" />
    </g>
  </g>
</svg>
